**harmony	**harte	**kern	**silbe	**rhyme	**timestamp	**phrase	**leadinstrument
*M4/4	*M4/4	*ICvox	*	*	*	*	*
*	*	*VRlead	*	*	*	*	*
*	*	*Hstimme	*	*	*	*	*
*a:	*a:	*C:	*	*	*a:	*a:	*a:
*	*	*M4/4	*	*	*	*	*
*	*	*clefC3	*	*	*	*	*
1r;	1r	r;	.	.	0	.	r
=1	=1	=1	=1	=1	=1	=1	=1
*>Letter>C	*>Letter>C	*>Letter>C	*>Letter>C	*>Letter>C	*>Letter>C	*>Letter>C	*>Letter>C
*>Label>Intro	*>Label>Intro	*>Label>Intro	*>Label>Intro	*>Label>Intro	*>Label>Intro	*>Label>Intro	*>Label>Intro
1Am	A:min	1r	.	.	0.3	newline	r
=2	=2	=2	=2	=2	=2	=2	=2
1Am	A:min	1r	.	.	2.094	.	r
=3	=3	=3	=3	=3	=3	=3	=3
1EMm	E:7	1r	.	.	3.888	.	r
=4	=4	=4	=4	=4	=4	=4	=4
1Am	A:min	1r	.	.	5.682	.	r
=5	=5	=5	=5	=5	=5	=5	=5
1Am	A:min	1r	.	.	7.476	newline	r
=6	=6	=6	=6	=6	=6	=6	=6
1Am	A:min	1r	.	.	9.244	.	r
=7	=7	=7	=7	=7	=7	=7	=7
1EMm	E:7	1r	.	.	11.011	.	r
=8	=8	=8	=8	=8	=8	=8	=8
1Am	A:min	1r	.	.	12.779	.	r
=9	=9	=9	=9	=9	=9	=9	=9
*>Letter>A	*>Letter>A	*>Letter>A	*>Letter>A	*>Letter>A	*>Letter>A	*>Letter>A	*>Letter>A
*>Label>Verse	*>Label>Verse	*>Label>Verse	*>Label>Verse	*>Label>Verse	*>Label>Verse	*>Label>Verse	*>Label>Verse
1Am	A:min	8r	.	.	14.546	newline	voice
.	.	8d	Ne-	.	.	.	.
.	.	8c	-ver	.	.	.	.
.	.	8d	know	.	.	.	.
.	.	8c	how	.	.	.	.
.	.	8d	much	.	.	.	.
.	.	8A	I	.	.	.	.
.	.	[8c	love	.	.	.	.
=10	=10	=10	=10	=10	=10	=10	=10
1Am	A:min	16c]	_	.	16.305	.	voice
.	.	8d	you	.	.	.	.
.	.	16r	.	.	.	.	.
.	.	4r	.	.	.	.	.
.	.	2r	.	.	.	.	.
=11	=11	=11	=11	=11	=11	=11	=11
1Am	A:min	8d	ne-	.	18.064	.	voice
.	.	8c	-ver	.	.	.	.
.	.	8d	know	.	.	.	.
.	.	8c	how	.	.	.	.
.	.	8d	much	.	.	.	.
.	.	8c	_	.	.	.	.
.	.	8A	I	.	.	.	.
.	.	8A	care.	A	.	.	.
=12	=12	=12	=12	=12	=12	=12	=12
1Am	A:min	1r	.	.	19.823	.	voice
=13	=13	=13	=13	=13	=13	=13	=13
1Am	A:min	8d	When	.	21.582	newline	voice
.	.	8c	you	.	.	.	.
.	.	8d	put	.	.	.	.
.	.	8c	your	.	.	.	.
.	.	4d	arms	.	.	.	.
.	.	8A	a-	.	.	.	.
.	.	[8c	-round	.	.	.	.
=14	=14	=14	=14	=14	=14	=14	=14
1Am	A:min	8c]	_	.	23.347	.	voice
.	.	8d	me	B	.	.	.
.	.	4r	.	.	.	.	.
.	.	8r	.	.	.	.	.
.	.	8A	I	.	.	.	.
.	.	8A	get	.	.	.	.
.	.	8A	a	.	.	.	.
=15	=15	=15	=15	=15	=15	=15	=15
1EMm	E:7	8d	fe-	(B	25.112	.	voice
.	.	8c	-ver	b)	.	.	.
.	.	8d	that's	.	.	.	.
.	.	8c	so	.	.	.	.
.	.	8d	hard	.	.	.	.
.	.	8c	_	.	.	.	.
.	.	8A	to	.	.	.	.
.	.	[8A	bear,	A	.	.	.
=16	=16	=16	=16	=16	=16	=16	=16
1Am	A:min	8A]	_	.	26.877	.	voice
.	.	8A	you	.	.	.	.
.	.	8A	give	.	.	.	.
.	.	8A	me	B	.	.	.
.	.	4c	fe-	(B	.	.	.
.	.	4A	-ver	b)	.	.	.
=17	=17	=17	=17	=17	=17	=17	=17
*>Letter>B	*>Letter>B	*>Letter>B	*>Letter>B	*>Letter>B	*>Letter>B	*>Letter>B	*>Letter>B
*>Label>Chorus	*>Label>Chorus	*>Label>Chorus	*>Label>Chorus	*>Label>Chorus	*>Label>Chorus	*>Label>Chorus	*>Label>Chorus
1Am	A:min	1r	.	.	28.643	newline	voice
=18	=18	=18	=18	=18	=18	=18	=18
1Am	A:min	8r	.	.	30.407	.	voice
.	.	8dq	_	.	.	.	.
.	.	[8e-	when	.	.	.	.
.	.	8e-]	_	.	.	.	.
.	.	8c	you	.	.	.	.
.	.	4d	kiss	.	.	.	.
.	.	4c	me,	B	.	.	.
=19	=19	=19	=19	=19	=19	=19	=19
1Am	A:min	8d	fe-	(B	32.172	.	voice
.	.	8c	-ver	b)	.	.	.
.	.	8d	when.	.	.	.	.
.	.	8c	you	.	.	.	.
.	.	[8d	hold	.	.	.	.
.	.	8c]	_	.	.	.	.
.	.	8A	me	B	.	.	.
.	.	[8A	tight	C	.	.	.
=20	=20	=20	=20	=20	=20	=20	=20
1Am	A:min	4A]	_	.	33.937	.	voice
.	.	4r	.	.	.	.	.
.	.	2r	.	.	.	.	.
=21	=21	=21	=21	=21	=21	=21	=21
1Am	A:min	12g	Fe-	(B	35.702	newline	voice
.	.	12a	-ver!	b)	.	.	.
.	.	12r	.	.	.	.	.
.	.	4r	.	.	.	.	.
.	.	4r	.	.	.	.	.
.	.	8r	.	.	.	.	.
.	.	8d	In	.	.	.	.
=22	=22	=22	=22	=22	=22	=22	=22
1Am	A:min	8c	the	.	37.464	.	voice
.	.	8d	mor-	.	.	.	.
.	.	8c	-nin'	.	.	.	.
.	.	8r	.	.	.	.	.
.	.	4r	.	.	.	.	.
.	.	8r	.	.	.	.	.
.	.	8~G	a'-	.	.	.	.
=23	=23	=23	=23	=23	=23	=23	=23
1EMm	E:7	8d	-fe-	.	39.226	.	voice
.	.	8c	-ver	.	.	.	.
.	.	4d	all	.	.	.	.
.	.	8d	through	.	.	.	.
.	.	8c	_	.	.	.	.
.	.	8A	the	.	.	.	.
.	.	8A	night.	C	.	.	.
=24	=24	=24	=24	=24	=24	=24	=24
1Am	A:min	1r	.	.	40.988	.	voice
=25	=25	=25	=25	=25	=25	=25	=25
*>Letter>A	*>Letter>A	*>Letter>A	*>Letter>A	*>Letter>A	*>Letter>A	*>Letter>A	*>Letter>A
*>Label>Verse	*>Label>Verse	*>Label>Verse	*>Label>Verse	*>Label>Verse	*>Label>Verse	*>Label>Verse	*>Label>Verse
1Am	A:min	8r	.	.	42.75	newline	voice
.	.	4.d	Sun	.	.	.	.
.	.	8c	lights	C	.	.	.
.	.	8d	up	.	.	.	.
.	.	8r	.	.	.	.	.
.	.	8A	the	.	.	.	.
=26	=26	=26	=26	=26	=26	=26	=26
1Am	A:min	8c	day-	.	44.495	.	voice
.	.	8d	-time	C	.	.	.
.	.	4r	.	.	.	.	.
.	.	4r	.	.	.	.	.
.	.	8r	.	.	.	.	.
.	.	8A	the	.	.	.	.
=27	=27	=27	=27	=27	=27	=27	=27
1Am	A:min	4e-	moon	.	46.241	.	voice
.	.	4d	lights	C	.	.	.
.	.	4c	up	.	.	.	.
.	.	8A	the	.	.	.	.
.	.	8A	night	C	.	.	.
=28	=28	=28	=28	=28	=28	=28	=28
1Am	A:min	2r	.	.	47.987	.	voice
.	.	4r	.	.	.	.	.
.	.	8r	.	.	.	.	.
.	.	8gq	_	.	.	.	.
.	.	[8a	I	.	.	.	.
=29	=29	=29	=29	=29	=29	=29	=29
1Am	A:min	6a]	_	.	49.732	newline	voice
.	.	6e-	light	C	.	.	.
.	.	6e-	up	.	.	.	.
.	.	6~d	when	.	.	.	.
.	.	6d	you	.	.	.	.
.	.	12e-	call	.	.	.	.
.	.	[12d	_	.	.	.	.
=30	=30	=30	=30	=30	=30	=30	=30
1Am	A:min	4d]	_	.	51.508	.	voice
.	.	8c	my	.	.	.	.
.	.	8A	name	E	.	.	.
.	.	8r	.	.	.	.	.
.	.	4A	and	.	.	.	.
.	.	8A	you	.	.	.	.
=31	=31	=31	=31	=31	=31	=31	=31
1EMm	E:7	8d	know	.	53.285	.	voice
.	.	8c	I'm	.	.	.	.
.	.	8d	gon-	.	.	.	.
.	.	8c	-na	.	.	.	.
.	.	8d	treat	(B	.	.	.
.	.	8c	_	.	.	.	.
.	.	8A	you	b)	.	.	.
.	.	[8A	right,	C	.	.	.
=32	=32	=32	=32	=32	=32	=32	=32
1Am	A:min	8A]	_	.	55.061	.	voice
.	.	8A	you	.	.	.	.
.	.	8A	give	.	.	.	.
.	.	8A	me	.	.	.	.
.	.	4c	fe-	(B	.	.	.
.	.	4A	-ver.	b)	.	.	.
=33	=33	=33	=33	=33	=33	=33	=33
*>Letter>B	*>Letter>B	*>Letter>B	*>Letter>B	*>Letter>B	*>Letter>B	*>Letter>B	*>Letter>B
*>Label>Chorus	*>Label>Chorus	*>Label>Chorus	*>Label>Chorus	*>Label>Chorus	*>Label>Chorus	*>Label>Chorus	*>Label>Chorus
1Am	A:min	1r	.	.	56.837	newline	voice
=34	=34	=34	=34	=34	=34	=34	=34
1Am	A:min	8r	.	.	58.602	.	voice
.	.	8dq	_	.	.	.	.
.	.	[8e-	When	.	.	.	.
.	.	8e-]	_	.	.	.	.
.	.	8c	you	.	.	.	.
.	.	4d	kiss	.	.	.	.
.	.	4c	me,	.	.	.	.
=35	=35	=35	=35	=35	=35	=35	=35
1Am	A:min	8d	fe-	.	60.366	.	voice
.	.	8c	-ver	.	.	.	.
.	.	8d	when	.	.	.	.
.	.	8c	you	.	.	.	.
.	.	[8d	hold	.	.	.	.
.	.	8c]	_	.	.	.	.
.	.	8A	me	.	.	.	.
.	.	[8A	tight	C	.	.	.
=36	=36	=36	=36	=36	=36	=36	=36
1Am	A:min	4A]	_	.	62.13	.	voice
.	.	4r	.	.	.	.	.
.	.	4r	.	.	.	.	.
.	.	12r	.	.	.	.	.
.	.	12r	.	.	.	.	.
.	.	12g	Fe-	(B	.	.	.
=37	=37	=37	=37	=37	=37	=37	=37
1Am	A:min	8a	-ver!	b)	63.894	newline	voice
.	.	8r	.	.	.	.	.
.	.	4r	.	.	.	.	.
.	.	4r	.	.	.	.	.
.	.	8r	.	.	.	.	.
.	.	8d	In	.	.	.	.
=38	=38	=38	=38	=38	=38	=38	=38
1Am	A:min	8c	the	.	65.652	.	voice
.	.	8d	mor-	.	.	.	.
.	.	8c	-nin',	.	.	.	.
.	.	8r	.	.	.	.	.
.	.	4r	.	.	.	.	.
.	.	8r	.	.	.	.	.
.	.	8~G	a-	.	.	.	.
=39	=39	=39	=39	=39	=39	=39	=39
1EMm	E:7	8d	-fe-	.	67.409	.	voice
.	.	8c	-ver	.	.	.	.
.	.	4d	all	.	.	.	.
.	.	8d	through	.	.	.	.
.	.	8c	_	.	.	.	.
.	.	8A	the	.	.	.	.
.	.	8A	night.	C	.	.	.
=40	=40	=40	=40	=40	=40	=40	=40
1Am	A:min	1r	.	.	69.167	.	voice
=41	=41	=41	=41	=41	=41	=41	=41
*>Letter>F	*>Letter>F	*>Letter>F	*>Letter>F	*>Letter>F	*>Letter>F	*>Letter>F	*>Letter>F
*>Label>Bridge	*>Label>Bridge	*>Label>Bridge	*>Label>Bridge	*>Label>Bridge	*>Label>Bridge	*>Label>Bridge	*>Label>Bridge
1Am	A:min	8r	.	.	70.925	newline	voice
.	.	4c	Ev-	.	.	.	.
.	.	8A	-'ry-	.	.	.	.
.	.	4A	-bo-	.	.	.	.
.	.	4G	-dy's	.	.	.	.
=42	=42	=42	=42	=42	=42	=42	=42
1Am	A:min	8r	.	.	72.675	.	voice
.	.	4A	got	.	.	.	.
.	.	8G	the	.	.	.	.
.	.	4A	fe-	(B	.	.	.
.	.	4c	-ver,	b)	.	.	.
=43	=43	=43	=43	=43	=43	=43	=43
1Am	A:min	8r	.	.	74.426	.	voice
.	.	8c	that	.	.	.	.
.	.	4A	is	.	.	.	.
.	.	4A	some-	.	.	.	.
.	.	4G	-thin'	.	.	.	.
=44	=44	=44	=44	=44	=44	=44	=44
1Am	A:min	8A	you	.	76.176	.	voice
.	.	4G	all	.	.	.	.
.	.	8A	know	D	.	.	.
.	.	2r	.	.	.	.	.
=45	=45	=45	=45	=45	=45	=45	=45
1Am	A:min	8r	.	.	77.927	newline	voice
.	.	4c	Fe-	(B	.	.	.
.	.	8A	-ver	b)	.	.	.
.	.	4A	is-	.	.	.	.
.	.	4G	-n't	.	.	.	.
=46	=46	=46	=46	=46	=46	=46	=46
1Am	A:min	8r	.	.	79.678	.	voice
.	.	4A	such	.	.	.	.
.	.	8G	a	.	.	.	.
.	.	4A	new	.	.	.	.
.	.	4c	thing,	B	.	.	.
=47	=47	=47	=47	=47	=47	=47	=47
1EMm	E:7	8d	fe-	(B	81.43	.	voice
.	.	8c	-ver	b)	.	.	.
.	.	8d	star-	.	.	.	.
.	.	8c	-ted	.	.	.	.
.	.	8d	long	.	.	.	.
.	.	8c	_	.	.	.	.
.	.	8A	a-	.	.	.	.
.	.	8A	-go.	D	.	.	.
=48	=48	=48	=48	=48	=48	=48	=48
1Am	A:min	1r	.	.	83.181	.	voice
=49	=49	=49	=49	=49	=49	=49	=49
*>Letter>K	*>Letter>K	*>Letter>K	*>Letter>K	*>Letter>K	*>Letter>K	*>Letter>K	*>Letter>K
*>Label>Interlude	*>Label>Interlude	*>Label>Interlude	*>Label>Interlude	*>Label>Interlude	*>Label>Interlude	*>Label>Interlude	*>Label>Interlude
*B-:	*B-:	*B-:	*	*	*B-:	*B-:	*B-:
1B-m	B-:min	1r	.	.	84.933	newline	voice
=50	=50	=50	=50	=50	=50	=50	=50
1B-m	B-:min	1r	.	.	86.695	.	voice
=51	=51	=51	=51	=51	=51	=51	=51
1FMm	F:7	1r	.	.	88.457	.	voice
=52	=52	=52	=52	=52	=52	=52	=52
1B-m	B-:min	1r	.	.	90.219	.	voice
=53	=53	=53	=53	=53	=53	=53	=53
*>Letter>A	*>Letter>A	*>Letter>A	*>Letter>A	*>Letter>A	*>Letter>A	*>Letter>A	*>Letter>A
*>Label>Verse	*>Label>Verse	*>Label>Verse	*>Label>Verse	*>Label>Verse	*>Label>Verse	*>Label>Verse	*>Label>Verse
1B-m	B-:min	8r	.	.	91.981	newline	voice
.	.	4e-	Ro-	.	.	.	.
.	.	8d-	-me-	b	.	.	.
.	.	4e-	-o	D	.	.	.
.	.	8B-	loved	.	.	.	.
.	.	[8d-	Ju	.	.	.	.
=54	=54	=54	=54	=54	=54	=54	=54
1B-m	B-:min	16.d-]	_	.	93.725	.	voice
.	.	32d-	li-	b	.	.	.
.	.	8e-	-et	.	.	.	.
.	.	4r	.	.	.	.	.
.	.	4r	.	.	.	.	.
.	.	8r	.	.	.	.	.
.	.	8e-q	_	.	.	.	.
.	.	[8e	Ju	.	.	.	.
=55	=55	=55	=55	=55	=55	=55	=55
1B-m	B-:min	8e]	_	.	95.47	.	voice
.	.	8e	li-	b	.	.	.
.	.	8e	-et,	.	.	.	.
.	.	[8e	she	B	.	.	.
.	.	8e]	_	.	.	.	.
.	.	16d#	felt	.	.	.	.
.	.	16e	_	.	.	.	.
.	.	6d#	_	.	.	.	.
.	.	[12d-	the	.	.	.	.
=56	=56	=56	=56	=56	=56	=56	=56
1B-m	B-:min	12d-]	_	.	97.215	.	voice
.	.	6B-	same	E	.	.	.
.	.	4r	.	.	.	.	.
.	.	4r	.	.	.	.	.
.	.	8r	.	.	.	.	.
.	.	8F	And	.	.	.	.
=57	=57	=57	=57	=57	=57	=57	=57
1B-m	B-:min	8e-	when	.	98.959	newline	voice
.	.	8d-	he	B	.	.	.
.	.	8e-	put	.	.	.	.
.	.	8d-	his	.	.	.	.
.	.	4e-	arms	.	.	.	.
.	.	8B-	a-	.	.	.	.
.	.	[8d-	-round	.	.	.	.
=58	=58	=58	=58	=58	=58	=58	=58
1B-m	B-:min	8d-]	_	.	100.718	.	voice
.	.	8e-	her	.	.	.	.
.	.	4r	.	.	.	.	.
.	.	8r	.	.	.	.	.
.	.	8B-	he	B	.	.	.
.	.	8B-	said	.	.	.	.
.	.	[8e-	\\\"Ju	.	.	.	.
=59	=59	=59	=59	=59	=59	=59	=59
1FMm	F:7	24e-]	_	.	102.477	.	voice
.	.	8d-	lie,	b	.	.	.
.	.	8e-	ba-	.	.	.	.
.	.	8d-	-by,	b	.	.	.
.	.	[12e-	you're	.	.	.	.
.	.	8e-]	_	.	.	.	.
.	.	8d-	_	.	.	.	.
.	.	8B-	my	.	.	.	.
.	.	[8B-	flame	E	.	.	.
=60	=60	=60	=60	=60	=60	=60	=60
1B-m	B-:min	6B-]	,\\\"	.	104.236	.	voice
.	.	6B-	thou	.	.	.	.
.	.	12B-	gi-	.	.	.	.
.	.	[12B-	-vest	.	.	.	.
.	.	8B-]	_	.	.	.	.
.	.	8d-	fe-	(B	.	.	.
.	.	4B-	-ver.	b)	.	.	.
=61	=61	=61	=61	=61	=61	=61	=61
*>Letter>B	*>Letter>B	*>Letter>B	*>Letter>B	*>Letter>B	*>Letter>B	*>Letter>B	*>Letter>B
*>Label>Chorus	*>Label>Chorus	*>Label>Chorus	*>Label>Chorus	*>Label>Chorus	*>Label>Chorus	*>Label>Chorus	*>Label>Chorus
1B-m	B-:min	1r	.	.	105.995	newline	voice
=62	=62	=62	=62	=62	=62	=62	=62
1B-m	B-:min	8r	.	.	107.753	.	voice
.	.	8e-q	_	.	.	.	.
.	.	[8f-	When	.	.	.	.
.	.	8f-]	_	.	.	.	.
.	.	8d-	we	b	.	.	.
.	.	8e-	kiss-	.	.	.	.
.	.	8d-	-eth	.	.	.	.
.	.	8r	.	.	.	.	.
.	.	[8e-	fe	(B	.	.	.
=63	=63	=63	=63	=63	=63	=63	=63
1B-m	B-:min	24e-]	_	.	109.511	.	voice
.	.	8d-	ver	b)	.	.	.
.	.	8e-	with	.	.	.	.
.	.	[8d-	thy	.	.	.	.
.	.	12d-]	_	.	.	.	.
.	.	8e-	fla	.	.	.	.
.	.	8d-	_	.	.	.	.
.	.	8B-	min'	.	.	.	.
.	.	8B-	youth.	F	.	.	.
=64	=64	=64	=64	=64	=64	=64	=64
1B-m	B-:min	2r	.	.	111.268	.	voice
.	.	4r	.	.	.	.	.
.	.	12r	.	.	.	.	.
.	.	12r	.	.	.	.	.
.	.	12a-	Fe-	(B	.	.	.
=65	=65	=65	=65	=65	=65	=65	=65
1B-m	B-:min	8b-	-ver!	b)	113.026	newline	voice
.	.	8r	.	.	.	.	.
.	.	4r	.	.	.	.	.
.	.	4r	.	.	.	.	.
.	.	8r	.	.	.	.	.
.	.	8e	I'm	.	.	.	.
=66	=66	=66	=66	=66	=66	=66	=66
1B-m	B-:min	8d-	a-	.	114.778	.	voice
.	.	8e-	-fi-	.	.	.	.
.	.	8d-	-re	.	.	.	.
.	.	8r	.	.	.	.	.
.	.	4r	.	.	.	.	.
.	.	8r	.	.	.	.	.
.	.	8e-	fe-	(B	.	.	.
=67	=67	=67	=67	=67	=67	=67	=67
1FMm	F:7	8d-	-ver,	b)	116.531	.	voice
.	.	8e-	yea,	.	.	.	.
.	.	4d-	I	.	.	.	.
.	.	6e-	burn	.	.	.	.
.	.	6d-	_	.	.	.	.
.	.	[6B-	for	.	.	.	.
=68	=68	=68	=68	=68	=68	=68	=68
1B-m	B-:min	8B-]	_	.	118.283	.	voice
.	.	4B-	sooth	F	.	.	.
.	.	8r	.	.	.	.	.
.	.	2r	.	.	.	.	.
=69	=69	=69	=69	=69	=69	=69	=69
*>Letter>K	*>Letter>K	*>Letter>K	*>Letter>K	*>Letter>K	*>Letter>K	*>Letter>K	*>Letter>K
*>Label>Interlude	*>Label>Interlude	*>Label>Interlude	*>Label>Interlude	*>Label>Interlude	*>Label>Interlude	*>Label>Interlude	*>Label>Interlude
*b:	*b:	*b:	*	*	*b:	*b:	*b:
1Bm	B:min	1r	.	.	120.036	newline	voice
=70	=70	=70	=70	=70	=70	=70	=70
1Bm	B:min	1r	.	.	121.789	.	voice
=71	=71	=71	=71	=71	=71	=71	=71
2Bm	B:min	1r	.	.	123.543	.	voice
2F#Mm	F#:7	.	.	.	124.42	.	voice
=72	=72	=72	=72	=72	=72	=72	=72
1Bm	B:min	1r	.	.	125.297	.	voice
=73	=73	=73	=73	=73	=73	=73	=73
*>Letter>A	*>Letter>A	*>Letter>A	*>Letter>A	*>Letter>A	*>Letter>A	*>Letter>A	*>Letter>A
*>Label>Verse	*>Label>Verse	*>Label>Verse	*>Label>Verse	*>Label>Verse	*>Label>Verse	*>Label>Verse	*>Label>Verse
1Bm	B:min	6r	.	.	127.051	newline	voice
.	.	6e	Cap-	.	.	.	.
.	.	6d	-tain	.	.	.	.
.	.	12e	Smith	.	.	.	.
.	.	12d	and	.	.	.	.
.	.	12r	.	.	.	.	.
.	.	8r	.	.	.	.	.
.	.	8e	Po-	.	.	.	.
=74	=74	=74	=74	=74	=74	=74	=74
1Bm	B:min	8B	-ca-	.	128.797	.	voice
.	.	8d	-han-	.	.	.	.
.	.	8e	-tas	.	.	.	.
.	.	8r	.	.	.	.	.
.	.	4r	.	.	.	.	.
.	.	8r	.	.	.	.	.
.	.	8dq	_	.	.	.	.
.	.	[8e	had	.	.	.	.
=75	=75	=75	=75	=75	=75	=75	=75
1Bm	B:min	8e]	_	.	130.544	.	voice
.	.	8d	a	.	.	.	.
.	.	8e	ve-	.	.	.	.
.	.	8d	-ry	b	.	.	.
.	.	8e	mad	.	.	.	.
.	.	8d	_	.	.	.	.
.	.	8B	af-	.	.	.	.
.	.	[8B	-fair	A	.	.	.
=76	=76	=76	=76	=76	=76	=76	=76
.	.	8~F#q	_	.	.	.	.
1Bm	B:min	8B]	_	.	132.29	.	voice
.	.	8r	.	.	.	.	.
.	.	4r	.	.	.	.	.
.	.	2r	.	.	.	.	.
=77	=77	=77	=77	=77	=77	=77	=77
1Bm	B:min	8e	When	.	134.037	newline	voice
.	.	8d	her	.	.	.	.
.	.	8e	dad-	.	.	.	.
.	.	8d	-dy	b	.	.	.
.	.	8r	.	.	.	.	.
.	.	8e	tried	.	.	.	.
.	.	8B	to	.	.	.	.
.	.	[8d	kill	.	.	.	.
=78	=78	=78	=78	=78	=78	=78	=78
1Bm	B:min	8d]	_	.	135.789	.	voice
.	.	8e	him	.	.	.	.
.	.	4r	.	.	.	.	.
.	.	8r	.	.	.	.	.
.	.	8B	she	b	.	.	.
.	.	4B	said,	.	.	.	.
=79	=79	=79	=79	=79	=79	=79	=79
1F#Mm	F#:7	8e	\\\"Dad-	.	137.54	.	voice
.	.	8d	-dy,	b	.	.	.
.	.	8e	oh,	.	.	.	.
.	.	8d	_	.	.	.	.
.	.	8e	don't	.	.	.	.
.	.	8d	_	.	.	.	.
.	.	8B	you	.	.	.	.
.	.	[8B	dare	A	.	.	.
=80	=80	=80	=80	=80	=80	=80	=80
1Bm	B:min	8B]	,\\\"	.	139.292	.	voice
.	.	8B	he	b	.	.	.
.	.	8B	gives	.	.	.	.
.	.	8B	me	b	.	.	.
.	.	4d	fe-	(B	.	.	.
.	.	4B	-ver.	b)	.	.	.
=81	=81	=81	=81	=81	=81	=81	=81
*>Letter>B	*>Letter>B	*>Letter>B	*>Letter>B	*>Letter>B	*>Letter>B	*>Letter>B	*>Letter>B
*>Label>Chorus	*>Label>Chorus	*>Label>Chorus	*>Label>Chorus	*>Label>Chorus	*>Label>Chorus	*>Label>Chorus	*>Label>Chorus
1Bm	B:min	1r	.	.	141.043	newline	voice
=82	=82	=82	=82	=82	=82	=82	=82
1Bm	B:min	8r	.	.	142.773	.	voice
.	.	8eq	_	.	.	.	.
.	.	[8f	With	.	.	.	.
.	.	8f]	_	.	.	.	.
.	.	8d	his	g	.	.	.
.	.	8e	kis-	(G	.	.	.
.	.	8d	-ses	g)	.	.	.
.	.	8r	.	.	.	.	.
.	.	[8e	fe	(B	.	.	.
=83	=83	=83	=83	=83	=83	=83	=83
1Bm	B:min	8e]	_	.	144.503	.	voice
.	.	8d	ver	b)	.	.	.
.	.	8e	when	.	.	.	.
.	.	8d	he	b	.	.	.
.	.	8e	holds	.	.	.	.
.	.	8d	_	.	.	.	.
.	.	8B	me	b	.	.	.
.	.	[8B	tight	C	.	.	.
=84	=84	=84	=84	=84	=84	=84	=84
1Bm	B:min	4B]	_	.	146.233	.	voice
.	.	4r	.	.	.	.	.
.	.	4r	.	.	.	.	.
.	.	12r	.	.	.	.	.
.	.	12r	.	.	.	.	.
.	.	12a	Fe-	(B	.	.	.
=85	=85	=85	=85	=85	=85	=85	=85
1Bm	B:min	8b	-ver!	b)	147.962	newline	voice
.	.	8r	.	.	.	.	.
.	.	4r	.	.	.	.	.
.	.	4r	.	.	.	.	.
.	.	8r	.	.	.	.	.
.	.	8e	I'm	.	.	.	.
=86	=86	=86	=86	=86	=86	=86	=86
1Bm	B:min	8.d	his	g	149.726	.	voice
.	.	16e	mis-	(G	.	.	.
.	.	8d	-sus	g)	.	.	.
.	.	8r	.	.	.	.	.
.	.	4r	.	.	.	.	.
.	.	8r	.	.	.	.	.
.	.	8~A	and	.	.	.	.
=87	=87	=87	=87	=87	=87	=87	=87
1F#Mm	F#:7	8e	dad-	.	151.489	.	voice
.	.	8d	-dy,	b	.	.	.
.	.	8e	won't	.	.	.	.
.	.	8d	you	.	.	.	.
.	.	8e	treat	B	.	.	.
.	.	8d	_	.	.	.	.
.	.	8B	him	.	.	.	.
.	.	[8B	right	C	.	.	.
=88	=88	=88	=88	=88	=88	=88	=88
1Bm	B:min	8B]	_	.	153.252	.	voice
.	.	8r	.	.	.	.	.
.	.	4r	.	.	.	.	.
.	.	4r	.	.	.	.	.
.	.	8r	.	.	.	.	.
.	.	[8e	Now	.	.	.	.
=89	=89	=89	=89	=89	=89	=89	=89
*>Letter>A	*>Letter>A	*>Letter>A	*>Letter>A	*>Letter>A	*>Letter>A	*>Letter>A	*>Letter>A
*>Label>Verse	*>Label>Verse	*>Label>Verse	*>Label>Verse	*>Label>Verse	*>Label>Verse	*>Label>Verse	*>Label>Verse
1Bm	B:min	6e]	_	.	155.015	newline	voice
.	.	6d	you've	.	.	.	.
.	.	12e	lis-	.	.	.	.
.	.	[12d	-tened	.	.	.	.
.	.	8d]	_	.	.	.	.
.	.	8e	to	.	.	.	.
.	.	4B	my	.	.	.	.
=90	=90	=90	=90	=90	=90	=90	=90
1Bm	B:min	8d	sto-	.	156.758	.	voice
.	.	8e	-ry	b	.	.	.
.	.	4r	.	.	.	.	.
.	.	4r	.	.	.	.	.
.	.	8r	.	.	.	.	.
.	.	[8e	here's	.	.	.	.
=91	=91	=91	=91	=91	=91	=91	=91
1Bm	B:min	8e]	_	.	158.5	.	voice
.	.	8d	the	.	.	.	.
.	.	8e	point	.	.	.	.
.	.	8d	that	.	.	.	.
.	.	8e	I	.	.	.	.
.	.	8d	_	.	.	.	.
.	.	8B	have	.	.	.	.
.	.	[8B	made	E	.	.	.
=92	=92	=92	=92	=92	=92	=92	=92
1Bm	B:min	8B]	_	.	160.243	.	voice
.	.	8r	.	.	.	.	.
.	.	4r	.	.	.	.	.
.	.	4r	.	.	.	.	.
.	.	8r	.	.	.	.	.
.	.	[8e	chicks	.	.	.	.
=93	=93	=93	=93	=93	=93	=93	=93
1Bm	B:min	8e]	_	.	161.986	newline	voice
.	.	8d	were	.	.	.	.
.	.	8e	born	.	.	.	.
.	.	8d	to	.	.	.	.
.	.	4e	give	.	.	.	.
.	.	8B	you	.	.	.	.
.	.	[8d	fe	(B	.	.	.
=94	=94	=94	=94	=94	=94	=94	=94
1Bm	B:min	8d]	_	.	163.744	.	voice
.	.	8e	ver	b)	.	.	.
.	.	4r	.	.	.	.	.
.	.	8r	.	.	.	.	.
.	.	8B	be	b	.	.	.
.	.	8B	it	.	.	.	.
.	.	[8e	Fah	.	.	.	.
=95	=95	=95	=95	=95	=95	=95	=95
1F#Mm	F#:7	24e]	_	.	165.502	.	voice
.	.	8d	ren-	.	.	.	.
.	.	8e	-heit	C	.	.	.
.	.	[8d	or	.	.	.	.
.	.	12d]	_	.	.	.	.
.	.	8e	Cen	.	.	.	.
.	.	8d	_	.	.	.	.
.	.	8B	ti-	.	.	.	.
.	.	[8B	-grade,	E	.	.	.
=96	=96	=96	=96	=96	=96	=96	=96
1Bm	B:min	8B]	_	.	167.26	.	voice
.	.	8B	they	.	.	.	.
.	.	8B	give	.	.	.	.
.	.	8B	you	.	.	.	.
.	.	4d	fe-	(B	.	.	.
.	.	4B	-ver.	b)	.	.	.
=97	=97	=97	=97	=97	=97	=97	=97
*>Letter>B	*>Letter>B	*>Letter>B	*>Letter>B	*>Letter>B	*>Letter>B	*>Letter>B	*>Letter>B
*>Label>Chorus	*>Label>Chorus	*>Label>Chorus	*>Label>Chorus	*>Label>Chorus	*>Label>Chorus	*>Label>Chorus	*>Label>Chorus
1Bm	B:min	1r	.	.	169.018	newline	voice
=98	=98	=98	=98	=98	=98	=98	=98
1Bm	B:min	8r	.	.	170.776	.	voice
.	.	8eq	_	.	.	.	.
.	.	[8f	When	.	.	.	.
.	.	8f]	_	.	.	.	.
.	.	8d	you	.	.	.	.
.	.	8e	kiss	(G	.	.	.
.	.	8d	them,	g)	.	.	.
.	.	8r	.	.	.	.	.
.	.	[8e	fe	(B	.	.	.
=99	=99	=99	=99	=99	=99	=99	=99
1Bm	B:min	8e]	_	.	172.534	.	voice
.	.	8d	ver	b)	.	.	.
.	.	8e	if	.	.	.	.
.	.	8d	you	.	.	.	.
.	.	8e	live	.	.	.	.
.	.	8d	_	.	.	.	.
.	.	8B	and	.	.	.	.
.	.	[8B	learn	H	.	.	.
=100	=100	=100	=100	=100	=100	=100	=100
1Bm	B:min	4B]	_	.	174.292	.	voice
.	.	4r	.	.	.	.	.
.	.	4r	.	.	.	.	.
.	.	12r	.	.	.	.	.
.	.	12r	.	.	.	.	.
.	.	12a	Fe-	(B	.	.	.
=101	=101	=101	=101	=101	=101	=101	=101
1Bm	B:min	8b	-ver!	b)	176.049	newline	voice
.	.	8r	.	.	.	.	.
.	.	4r	.	.	.	.	.
.	.	4r	.	.	.	.	.
.	.	8r	.	.	.	.	.
.	.	8e	'Till	.	.	.	.
=102	=102	=102	=102	=102	=102	=102	=102
1Bm	B:min	4d	you	.	177.804	.	voice
.	.	12e	siz-	(G	.	.	.
.	.	6d	-zle	g)	.	.	.
.	.	4r	.	.	.	.	.
.	.	8r	.	.	.	.	.
.	.	8~A	Oh,	.	.	.	.
=103	=103	=103	=103	=103	=103	=103	=103
1F#Mm	F#:7	8e	what	.	179.559	.	voice
.	.	8d	a	.	.	.	.
.	.	8e	love-	.	.	.	.
.	.	8d	-ly	b	.	.	.
.	.	8e	way	.	.	.	.
.	.	8d	_	.	.	.	.
.	.	8B	to	.	.	.	.
.	.	[8B	burn	G	.	.	.
=104	=104	=104	=104	=104	=104	=104	=104
1Bm	B:min	4B]	_	.	181.314	.	voice
.	.	8r	.	.	.	.	.
.	.	4r	.	.	.	.	.
.	.	4r	.	.	.	.	.
.	.	8~A	Oh,	.	.	.	.
=105	=105	=105	=105	=105	=105	=105	=105
1F#Mm	F#:7	8e	what	.	183.068	newline	voice
.	.	8d	a	.	.	.	.
.	.	8e	love-	.	.	.	.
.	.	8d	-ly	b	.	.	.
.	.	8e	way	.	.	.	.
.	.	8d	_	.	.	.	.
.	.	8B	to	.	.	.	.
.	.	[8B	burn	G	.	.	.
=106	=106	=106	=106	=106	=106	=106	=106
1Bm	B:min	4B]	_	.	184.816	.	voice
.	.	4r	.	.	.	.	.
.	.	6r	.	.	.	.	.
.	.	6r	.	.	.	.	.
.	.	6b	What	.	.	.	.
=107	=107	=107	=107	=107	=107	=107	=107
.	.	8eq	_	.	.	.	.
1F#Mm	F#:7	6f	a	.	186.564	.	voice
.	.	8e	love-	.	.	.	.
.	.	8d	-ly	b	.	.	.
.	.	12e	way	.	.	.	.
.	.	4d	_	.	.	.	.
.	.	8B	to	.	.	.	.
.	.	[8B	burn!	G	.	.	.
=108	=108	=108	=108	=108	=108	=108	=108
1Bm	B:min	4B]	_	.	188.311	.	voice
.	.	8r	.	.	.	.	.
.	.	4r	.	.	.	.	.
.	.	4r	.	.	.	.	.
.	.	8~A	Oh,	.	.	.	.
=109	=109	=109	=109	=109	=109	=109	=109
1F#Mm	F#:7	8e	what	.	190.059	newline	voice
.	.	8d	a	.	.	.	.
.	.	8e	love-	.	.	.	.
.	.	8d	-ly	b	.	.	.
.	.	8e	way	.	.	.	.
.	.	8d	_	.	.	.	.
.	.	8B	to	.	.	.	.
.	.	[8B	burn	G	.	.	.
=110	=110	=110	=110	=110	=110	=110	=110
1Bm	B:min	2B]	_	.	191.801	.	voice
.	.	2r	.	.	.	.	.
=111	=111	=111	=111	=111	=111	=111	=111
1F#Mm	F#:7	1r	.	.	193.544	.	voice
=112	=112	=112	=112	=112	=112	=112	=112
1Bm	B:min	1r	.	.	195.286	.	voice
1r;	1r	r;	.	.	198.553	.	r
1r;	1r	r;	.	.	202.773	.	r
*-	*-	*-	*-	*-	*-	*-	*-
!!!BillboardChartDate: 1958/09/22
!!!BillboardPeak: 8
!!!BillboardWeeksOnChart: 16
!!!COC: Peggy Lee
!!!ENC: Nathaniel Condit-Schultz
!!!EST: Awating manual error checking and editing.
!!!OTL: Fever
!!!RDF**chordsym: original McGill chord annotation + (implied pitch class set, with bass pitch in first position)
!!!RDF**harmony: **recip + pitch class of root + harmonic quality
!!!RDF**leadinstrument: original McGill primary instrumentation annotation
!!!RDF**phrase: newline = linebreak in original McGill transcription
!!!RDF**timestamp: McGill audio timestamp in seconds
!!!RDT: 2017/01/12/
!!!SampleActualRank: 33
!!!SampleID#: 0396
!!!SampleTargetRank: 32
!!!MBID: a5ba2000-818f-4575-9e90-86ad1ae97351
